X:175
T: In der finstern Metten
N: A0539A
O: Europa, Mitteleuropa, Deutschland
N: Spoerls Liederhs. 1392 - 1400.
R: Romanze, Ballade, Lied, religioeses Lied
M: 4/2
L: 1/2
K: C
G | GGGG | A2G
G | FFED | C2z
G | GGGG | A2Fz |
FFAA | _BAG2 |
GGGG | c2G
G | AAGG | F2z2 |
GGGA | G2E
E | FFDD | C3

@@@ Tune index: 488
